!!!SOCIAL_FUNCTION:	songs of war
!!!PDT:	1918

Specific Region: Dakotas, Minnesota, Montana, Nebraska
!!!REG: Dakotas and Montana
!!!LING_GROUP: Siouan
!!!LANG: Tone
!!!OTL@ENG: It Is Difficult
!!!ONM: No. 134
**kern
*Imale
*clefF4
*k[f#]
*M2/4
*MM80
16g
8.g
4g
=2
4g
4d
=3
16e
8.d
8d
8d
=4
2d
=5
16d
8.B
8d
8d
=6
4d
4B
=7
16d
[8.d
8d]
(32d
16.B)
=8
4B
4G
=9
8G
8B
4B
=10
4B
4G
=11
16B
8.G
8G
8G
=12
2G
=13||
*M3/4
2.G
=14
2G
16B
8.G
=15||
*M2/4
16g
8.g
16g
8.g
=16
(8.g
16d)
16d
8.d
=17
16e
8.d
8d
8d
=18||
*M3/4
16d
8.B
16d
8.d
8d
(16d
16B)
=19
16d
8.d
8d
(32d
16.B)
8B
8G
=20
16G
8.G
16d
8.c
8c
(32c
16.G)
=21
16c
8.G
8G
8G
8G
8G
=22
2.G
=23
2.G
==
*-
!!!CNT: Native American -- Sioux
!!!MRD: 1911/07//-1914///
!!!OCL: Frances Densmore
!!!YOR1: Teton Sioux Music, Bulletin 61,
!!!YOR2: Bureau of American Ethnology, Smithsonian Institution
!!!PPR: Government Printing Office
!!!PPP: Washington, D.C.
!!!PDT: 1918///
!!!ENC: Craig Stuart Sapp
!!!END: 2002/03/25/
!!!EEV: 2002/03/31/
!!!AGN: War Song/Song of a Typical War Expedition
!!!MPN@@SIO: Waha'changka-ya'pi
!!!MPN@ENG: Used-as-a-Shield
!!!TXO: Teton Sioux
!!!MLC: Standing Rock Reservation, South Dakota, United States of America
!!!ARL: 45.9/-100.7#
!!!catalog: Catalogue No. 611
!!!PPG: 347
!!!EFL: 138/245
!!!VTS: 331303761
